img/menu-logo-black.svg

<?xml version="1.0" encoding="UTF-8" standalone="no"?>
<svg width="16px" height="20px" viewBox="0 0 16 20" version="1.1" xmlns="http://www.w3.org/2000/svg" xmlns:xlink="http://www.w3.org/1999/xlink" xmlns:sketch="http://www.bohemiancoding.com/sketch/ns">
    <!-- Generator: Sketch 3.0.4 (8053) - http://www.bohemiancoding.com/sketch -->
    <title>menu-logo-black</title>
    <desc>Created with Sketch.</desc>
    <defs></defs>
    <g id="Page-1" stroke="none" stroke-width="1" fill="none" fill-rule="evenodd" sketch:type="MSPage">
        <g id="menu-logo-black" sketch:type="MSArtboardGroup" fill="#000000">
            <g id="Shape-+-Shape-+-Shape" sketch:type="MSLayerGroup">
                <path d="M15.785,0.281 C15.441,0.725 14.941,1.3505 14.316,2.083 C13.0605,3.538 11.2825,5.4145 9.244,6.9385 C8.228,7.6965 7.1425,8.3655 6.056,8.8135 C4.971,9.2645 3.877,9.4765 2.9395,9.4225 C2.4705,9.399 2.041,9.312 1.6745,9.196 C1.307,9.078 0.9945,8.9435 0.749,8.8025 C0.6195,8.7415 0.5175,8.67 0.4245,8.61 C0.3285,8.555 0.2525,8.5 0.19,8.453 C0.065,8.366 1.77635684e-15,8.3195 1.77635684e-15,8.3195 C1.77635684e-15,8.3195 0.0565,8.3745 0.174,8.477 C0.2285,8.5295 0.2995,8.5945 0.385,8.663 C0.4775,8.7285 0.5715,8.8145 0.694,8.8975 C0.924,9.0695 1.2285,9.2485 1.5965,9.416 C1.9635,9.5865 2.401,9.7325 2.8985,9.8195 C3.8855,9.999 5.0885,9.9145 6.3,9.579 C7.516,9.2415 8.745,8.679 9.907,8.0095 C12.233,6.673 14.3095,4.951 15.786,3.595 C15.861,3.5295 15.9345,3.4625 16.001,3.399 L16.001,0 C15.9365,0.08 15.871,0.177 15.785,0.281" id="Shape" sketch:type="MSShapeGroup"></path>
                <path d="M14.6835,7.127 C13.432,8.5865 11.6485,10.463 9.611,11.9905 C8.5935,12.751 7.51,13.4125 6.422,13.86 C5.3375,14.312 4.244,14.53 3.3065,14.47 C2.8375,14.4465 2.4075,14.367 2.041,14.249 C1.6735,14.126 1.361,13.9905 1.111,13.8525 C0.9855,13.7885 0.8845,13.718 0.79,13.6585 C0.6945,13.6025 0.619,13.546 0.556,13.505 C0.4305,13.414 0.365,13.3675 0.365,13.3675 C0.365,13.3675 0.423,13.4205 0.541,13.5235 C0.5955,13.578 0.666,13.6415 0.7515,13.709 C0.843,13.7795 0.939,13.866 1.056,13.944 C1.291,14.1175 1.5955,14.2955 1.962,14.462 C2.3295,14.6345 2.7665,14.775 3.264,14.866 C4.2515,15.048 5.4545,14.9605 6.666,14.624 C7.8815,14.2865 9.1115,13.725 10.2715,13.0555 C12.526,11.7705 14.5275,10.116 16,8.782 L16,5.5295 C15.669,5.947 15.2225,6.5 14.6835,7.127" id="Shape" sketch:type="MSShapeGroup"></path>
                <path d="M14.84,12.1725 C13.574,13.627 11.797,15.509 9.7575,17.0325 C8.737,17.7905 7.656,18.4555 6.565,18.9075 C5.485,19.3575 4.3925,19.5705 3.4545,19.518 C2.9865,19.487 2.5565,19.4075 2.1895,19.2905 C1.8225,19.1665 1.508,19.0335 1.26,18.893 C1.1345,18.8285 1.031,18.758 0.9365,18.7025 C0.8385,18.649 0.766,18.588 0.704,18.547 C0.58,18.455 0.51,18.4075 0.51,18.4075 C0.51,18.4075 0.5715,18.463 0.6865,18.5705 C0.7445,18.6195 0.8125,18.6875 0.901,18.752 C0.987,18.8215 1.0865,18.9065 1.2055,18.9855 C1.44,19.1575 1.744,19.336 2.1095,19.508 C2.478,19.68 2.916,19.8225 3.4075,19.9085 C4.3995,20.088 5.601,20.0025 6.8135,19.6655 C8.025,19.3305 9.2565,18.768 10.4155,18.103 C12.5925,16.853 14.534,15.267 15.999,13.9595 L15.999,10.7515 C15.6885,11.149 15.296,11.6335 14.84,12.1725" id="Shape" sketch:type="MSShapeGroup"></path>
            </g>
        </g>
    </g>
</svg>

<svg viewBox="0 0 16 20" xmlns="http://www.w3.org/2000/svg"><g fill-rule="evenodd"><path d="m15.785.281c-.344.444-.844 1.07-1.469 1.802-1.256 1.455-3.034 3.332-5.072 4.856-1.016.758-2.101 1.427-3.188 1.875-1.085.451-2.179.663-3.117.609-.469-.024-.898-.111-1.265-.226-.368-.118-.68-.252-.926-.393-.129-.061-.232-.133-.325-.193-.096-.055-.172-.11-.235-.157-.125-.087-.19-.133-.19-.133 0 0 .056.055.174.158.055.053.126.117.211.186.092.066.187.152.309.235.23.172.535.351.903.518.367.17.804.316 1.302.403.987.18 2.19.095 3.402-.24 1.216-.338 2.445-.9 3.607-1.57 2.326-1.336 4.403-3.058 5.879-4.414.075-.066.149-.133.215-.196v-3.399c-.065.08-.13.177-.216.281"/><path d="m14.684 7.127c-1.252 1.459-3.035 3.336-5.073 4.864-1.018.76-2.101 1.422-3.189 1.869-1.084.452-2.178.67-3.115.61-.469-.024-.899-.103-1.266-.221-.367-.123-.68-.258-.93-.397-.125-.064-.227-.134-.321-.194-.096-.056-.171-.113-.234-.153-.126-.091-.191-.138-.191-.138 0 0 .058.053.176.156.054.054.125.118.21.185.092.071.188.157.305.235.235.173.539.351.906.518.367.172.805.313 1.302.404.988.182 2.191.095 3.402-.242 1.215-.338 2.445-.899 3.605-1.569 2.255-1.285 4.256-2.94 5.729-4.274v-3.253c-.331.418-.777.971-1.316 1.598"/><path d="m14.84 12.173c-1.266 1.455-3.043 3.337-5.083 4.86-1.021.758-2.102 1.423-3.193 1.875-1.08.45-2.173.663-3.111.611-.468-.031-.898-.111-1.265-.227-.367-.124-.681-.257-.929-.398-.125-.065-.229-.135-.324-.191-.098-.053-.17-.114-.233-.155-.124-.092-.194-.14-.194-.14 0 0 .062.056.177.163.058.049.126.117.215.181.086.07.186.155.305.233.234.172.539.351.904.523.369.172.806.315 1.298.401.992.18 2.194.094 3.406-.243 1.212-.335 2.443-.898 3.602-1.563 2.177-1.25 4.119-2.836 5.584-4.144v-3.208c-.311.397-.703.882-1.159 1.421"/></g></svg>
